images/yup_303414.svg

<svg height="99.988" transform="rotate(180deg)" viewBox="0 0 99.933 99.988" width="99.933" xmlns="http://www.w3.org/2000/svg"><g fill="#fff"><path d="m60.832 58.356a.971.971 0 0 1 1.468-.836 10.257 10.257 0 0 0 5.2 1.568 8.758 8.758 0 0 0 8.88-8.88 8.666 8.666 0 0 0 -9.08-8.948 10.025 10.025 0 0 0 -5.052 1.432.928.928 0 0 1 -1.412-.794v-8.467a.976.976 0 0 1 .564-.883 17.145 17.145 0 0 1 7.777-1.768c10.786 0 19.8 8.03 19.8 19.02 0 11.7-8.948 19.8-20.381 19.8a14.8 14.8 0 0 1 -7.054-1.77 1.225 1.225 0 0 1 -.708-1.134z"/><path d="m27.25 31.722v-26.287a48.131 48.131 0 0 0 -12.41 8.988v39.324c.034 9.145 5.832 15.973 14.944 15.973 2.755 0 7.089-.855 9.739-3.5h.135v32.688a50.1 50.1 0 0 0 10.557 1.08c.621 0 1.238-.015 1.853-.038v-66.823a1.333 1.333 0 0 0 -1.4-1.405h-9.603a1.407 1.407 0 0 0 -1.407 1.407v19.287a6.2 6.2 0 0 1 -12.408 0z"/></g></svg>

<svg id="logo" style="transform: rotate(180deg);" xmlns="http://www.w3.org/2000/svg" width="99.933" height="99.988" viewBox="0 0 99.933 99.988">
  <title>yup symbol</title>
  <g>
    <path id="_Path_" data-name="&lt;Path&gt;" d="M60.832,58.356A.971.971,0,0,1,62.3,57.52a10.257,10.257,0,0,0,5.2,1.568,8.758,8.758,0,0,0,8.88-8.88A8.666,8.666,0,0,0,67.3,41.26a10.025,10.025,0,0,0-5.052,1.432.928.928,0,0,1-1.412-.794V33.431a.976.976,0,0,1,.564-.883,17.145,17.145,0,0,1,7.777-1.768c10.786,0,19.8,8.03,19.8,19.02,0,11.7-8.948,19.8-20.381,19.8a14.8,14.8,0,0,1-7.054-1.77,1.225,1.225,0,0,1-.708-1.134Z" style="fill: #fff"/>
    <path d="M27.25,31.722V5.435a48.131,48.131,0,0,0-12.41,8.988V53.747c.034,9.145,5.832,15.973,14.944,15.973,2.755,0,7.089-.855,9.739-3.5h.135V98.908a50.1,50.1,0,0,0,10.557,1.08c.621,0,1.238-.015,1.853-.038V33.127a1.333,1.333,0,0,0-1.4-1.405H41.065a1.407,1.407,0,0,0-1.407,1.407V52.416a6.2,6.2,0,0,1-12.408,0V31.722Z" style="fill: #fff"/>
  </g>
</svg>
